X: 5086
T: Bride, Foster Mother Of Jesus
R: waltz
M: 3/4
K: Fdorian
E3FG2|A3GA2|B3AG2|F6|
E3FG2|A3GA2|B6|B6|
E3FG2|A3GA2|B3AG2|F6|
E3FG2|B3AG2|F3ED2|E6|
e3dc2|d3cB2|c3BA2|B6|
E3FG2|A3GA2|B6|B6|
e3dc2|d3cB2|c3BA2|B6|
E3FG2|A3GE2|F3ED2|E6||

